public/payments/common/oxxo.svg

<svg width="76" height="35" viewBox="0 0 76 35" fill="none" xmlns="http://www.w3.org/2000/svg">
<g clip-path="url(#clip0_125_8)">
<path fill-rule="evenodd" clip-rule="evenodd" d="M0.0130615 2.35762C0.0130615 1.057 1.0775 -0.00695801 2.37871 -0.00695801H73.6204C74.9217 -0.00695801 75.9861 1.057 75.9861 2.35762V32.6285C75.9861 33.9293 74.9217 34.9931 73.6204 34.9931H2.37871C1.0775 34.9931 0.0130615 33.9293 0.0130615 32.6285V2.35762Z" fill="#F0A929"/>
<path fill-rule="evenodd" clip-rule="evenodd" d="M0.0130615 3.42944H75.9862V31.5563H0.0130615V3.42944Z" fill="white"/>
<path fill-rule="evenodd" clip-rule="evenodd" d="M64.3983 10.7344C60.9224 10.7344 58.0889 13.567 58.0889 17.0414C58.0889 20.5145 60.9224 23.3475 64.3983 23.3475C67.8736 23.3475 70.7072 20.5145 70.7072 17.0414C70.7072 13.567 67.8736 10.7344 64.3983 10.7344Z" fill="#E21C2A"/>
<path fill-rule="evenodd" clip-rule="evenodd" d="M12.3938 10.7344C8.91752 10.7344 6.08362 13.567 6.08362 17.0414C6.08362 20.5145 8.91752 23.3475 12.3938 23.3475C15.8684 23.3475 18.7024 20.5145 18.7024 17.0414C18.7024 13.567 15.8684 10.7344 12.3938 10.7344Z" fill="#E21C2A"/>
<path fill-rule="evenodd" clip-rule="evenodd" d="M63.9032 5.18399C58.0625 5.04985 55.3165 8.79341 51.3312 13.4107L47.5718 17.7656L53.525 24.8893C54.9433 27.0781 52.2363 29.2503 50.5569 27.2475L45.0528 20.6847L39.6894 26.8995C37.9815 28.8778 35.3052 26.6678 36.7539 24.4995L42.5763 17.7318L38.7618 13.1834L41.2156 10.1458L45.0949 14.8038L48.4389 10.9157C50.0798 9.00929 51.7531 6.48302 53.9219 5.18399H0.0131836V29.8023H12.6173C18.4587 29.8023 21.1105 26.3113 24.9877 21.6037L28.6462 17.162L22.5292 10.1785C21.062 8.02269 23.7175 5.78926 25.443 7.75262L31.0962 14.1872L36.3164 7.85007C37.9778 5.83202 40.7038 7.98082 39.3059 10.1821L33.6408 17.0829L37.5596 21.5423L35.0905 24.4648L31.1899 20.0675L27.9369 24.0308C26.3403 25.9745 24.724 28.4537 22.5854 29.8023H75.9864V5.18399H63.9032ZM22.3612 17.0414C22.3612 22.5296 17.8841 27.0051 12.3938 27.0051C6.9021 27.0051 2.42509 22.5296 2.42509 17.0414C2.42509 11.5524 6.9021 7.07725 12.3938 7.07725C17.8841 7.07725 22.3612 11.5524 22.3612 17.0414ZM64.3984 27.0051C58.9077 27.0051 54.4297 22.5296 54.4297 17.0414C54.4297 11.5524 58.9077 7.07725 64.3984 7.07725C69.8894 7.07725 74.3663 11.5524 74.3663 17.0414C74.3663 22.5296 69.8894 27.0051 64.3984 27.0051Z" fill="#E21C2A"/>
</g>
<defs>
<clipPath id="clip0_125_8">
<rect width="76" height="35" fill="white"/>
</clipPath>
</defs>
</svg>

<svg xmlns="http://www.w3.org/2000/svg" width="76" height="35" fill="none"><g fill-rule="evenodd" clip-path="url(#a)" clip-rule="evenodd"><path fill="#F0A929" d="M.01 2.36c0-1.3 1.07-2.37 2.37-2.37h71.24c1.3 0 2.37 1.07 2.37 2.37v30.27c0 1.3-1.07 2.36-2.37 2.36H2.38A2.37 2.37 0 0 1 0 32.63V2.36Z"/><path fill="#fff" d="M.01 3.43H76v28.13H0V3.43Z"/><path fill="#E21C2A" d="M64.4 10.73a6.32 6.32 0 0 0-6.31 6.31 6.32 6.32 0 0 0 12.62 0c0-3.47-2.84-6.3-6.31-6.3ZM12.4 10.73a6.32 6.32 0 0 0-6.32 6.31 6.32 6.32 0 0 0 12.62 0c0-3.47-2.83-6.3-6.3-6.3Z"/><path fill="#E21C2A" d="M63.9 5.18c-5.84-.13-8.58 3.61-12.57 8.23l-3.76 4.36 5.95 7.12c1.42 2.19-1.28 4.36-2.96 2.36l-5.5-6.57-5.37 6.22c-1.7 1.98-4.38-.23-2.94-2.4l5.83-6.77-3.82-4.55 2.46-3.03 3.87 4.65 3.35-3.88c1.64-1.91 3.31-4.44 5.48-5.74H.02V29.8h12.6c5.84 0 8.49-3.49 12.37-8.2l3.66-4.44-6.12-6.98c-1.47-2.16 1.19-4.4 2.91-2.43l5.66 6.44 5.22-6.34c1.66-2.02 4.38.13 2.99 2.33l-5.67 6.9 3.92 4.46-2.47 2.92-3.9-4.4-3.25 3.97c-1.6 1.94-3.22 4.42-5.35 5.77h53.4V5.18H63.9ZM22.36 17.04a9.98 9.98 0 0 1-9.97 9.97 9.98 9.98 0 0 1-9.96-9.97 9.98 9.98 0 0 1 9.96-9.96 9.98 9.98 0 0 1 9.97 9.96Zm42.04 9.97a9.99 9.99 0 0 1-9.97-9.97 9.98 9.98 0 0 1 9.97-9.96c5.49 0 9.97 4.47 9.97 9.96a9.98 9.98 0 0 1-9.97 9.97Z"/></g><defs><clipPath id="a"><path fill="#fff" d="M0 0h76v35H0z"/></clipPath></defs></svg>
